assets/Alien monster/Flat/alien_monster_flat.svg

<svg xmlns="http://www.w3.org/2000/svg" width="32" height="32" fill="none"><path fill="#635994" d="M9 3h1c.55 0 1 .45 1 1v1.43c0 .31-.26.57-.57.57H9c-.55 0-1-.45-1-1V4c0-.55.45-1 1-1ZM11.99 29.03H13c.55 0 1-.45 1-1v-1c0-.55-.45-1-1-1h-2.43c-.31 0-.57.26-.57.57v.44c0 1.1.89 1.99 1.99 1.99ZM18 27.03v1c0 .55.45 1 1 1h1.03c1.09 0 1.97-.88 1.97-1.97v-.46a.57.57 0 0 0-.57-.57H19c-.55 0-1 .45-1 1ZM24 5V4c0-.55-.45-1-1-1h-1c-.55 0-1 .45-1 1v1.43c0 .31.26.57.57.57H23c.55 0 1-.45 1-1ZM28 11.03c0-.55.45-1 1-1s1 .45 1 1v4c0 .55-.45 1-1 1h-.43a.57.57 0 0 0-.57.57v.46c0 1.09-.88 1.97-1.97 1.97h-.46a.57.57 0 0 0-.57.57v4.44c0 1.1-.89 1.99-1.99 1.99h-.44a.57.57 0 0 1-.57-.57V22.6a.57.57 0 0 0-.57-.57H10.57a.57.57 0 0 0-.57.57v2.86c0 .31-.25.57-.57.57H9c-1.1 0-2-.9-2-2V19.6c0-.31-.26-.57-.57-.57H6c-1.1 0-2-.9-2-2v-.43c0-.31-.26-.57-.57-.57H3c-.55 0-1-.45-1-1v-4c0-.55.45-1 1-1h.03c.55 0 1 .45 1 1v1.43c0 .32.25.57.57.57l1.8-.01c.3-.01.56-.22.6-.51.24-1.81 1.71-3.22 3.53-3.45.27-.03.47-.28.47-.56V6.57c0-.31.26-.57.58-.57h.3C13.05 6 14 6.95 14 8.12v.34c0 .32.26.57.57.57h2.86c.31 0 .57-.25.57-.57v-.39C18 6.93 18.93 6 20.07 6h.36c.31 0 .57.26.57.57V8.5c0 .28.2.53.47.56 1.82.22 3.27 1.64 3.5 3.46.04.3.3.51.6.51h1.86c.31 0 .57-.25.57-.57v-1.43Z"/><path fill="#402A32" d="M10 15.982c0 .565.445 1.018 1 1.018a1 1 0 0 0 1-1.018v-1.964c0-.565-.446-1.018-1-1.018-.555 0-1 .453-1 1.018v1.964ZM20 15.982c0 .565.445 1.018 1 1.018.555 0 1-.463 1-1.018v-1.964c0-.565-.445-1.018-1-1.018-.555 0-1 .453-1 1.018v1.964Z"/></svg>

<svg width="32" height="32" viewBox="0 0 32 32" fill="none" xmlns="http://www.w3.org/2000/svg">
<path d="M9 3H10C10.55 3 11 3.45 11 4V5.43C11 5.74 10.74 6 10.43 6H9C8.45 6 8 5.55 8 5V4C8 3.45 8.45 3 9 3Z" fill="#635994"/>
<path d="M11.99 29.03H13C13.55 29.03 14 28.58 14 28.03V27.03C14 26.48 13.55 26.03 13 26.03H10.57C10.26 26.03 10 26.29 10 26.6V27.04C10 28.14 10.89 29.03 11.99 29.03Z" fill="#635994"/>
<path d="M18 27.03V28.03C18 28.58 18.45 29.03 19 29.03H20.03C21.12 29.03 22 28.15 22 27.06V26.6C22 26.28 21.74 26.03 21.43 26.03H19C18.45 26.03 18 26.48 18 27.03Z" fill="#635994"/>
<path d="M24 5V4C24 3.45 23.55 3 23 3H22C21.45 3 21 3.45 21 4V5.43C21 5.74 21.26 6 21.57 6H23C23.55 6 24 5.55 24 5Z" fill="#635994"/>
<path d="M28 11.03C28 10.48 28.45 10.03 29 10.03C29.55 10.03 30 10.48 30 11.03V15.03C30 15.58 29.55 16.03 29 16.03H28.57C28.26 16.03 28 16.28 28 16.6V17.06C28 18.15 27.12 19.03 26.03 19.03H25.57C25.26 19.03 25 19.28 25 19.6V24.04C25 25.14 24.11 26.03 23.01 26.03H22.57C22.26 26.03 22 25.78 22 25.46V22.6C22 22.29 21.75 22.03 21.43 22.03H10.57C10.26 22.03 10 22.28 10 22.6V25.46C10 25.77 9.75 26.03 9.43 26.03H9C7.9 26.03 7 25.13 7 24.03V19.6C7 19.29 6.74 19.03 6.43 19.03H6C4.9 19.03 4 18.13 4 17.03V16.6C4 16.29 3.74 16.03 3.43 16.03H3C2.45 16.03 2 15.58 2 15.03V11.03C2 10.48 2.45 10.03 3 10.03H3.03C3.58 10.03 4.03 10.48 4.03 11.03V12.46C4.03 12.78 4.28 13.03 4.6 13.03L6.4 13.02C6.7 13.01 6.96 12.8 7 12.51C7.24 10.7 8.71 9.29 10.53 9.06C10.8 9.03 11 8.78 11 8.5V6.57C11 6.26 11.26 6 11.58 6H11.88C13.05 6 14 6.95 14 8.12V8.46C14 8.78 14.26 9.03 14.57 9.03H17.43C17.74 9.03 18 8.78 18 8.46V8.07C18 6.93 18.93 6 20.07 6H20.43C20.74 6 21 6.26 21 6.57V8.5C21 8.78 21.2 9.03 21.47 9.06C23.29 9.28 24.74 10.7 24.97 12.52C25.01 12.82 25.27 13.03 25.57 13.03H27.43C27.74 13.03 28 12.78 28 12.46V11.03Z" fill="#635994"/>
<path d="M10 15.9824C10 16.5466 10.4455 17 10.9999 17C11.5543 17 12.0097 16.5466 11.9998 15.9824V14.0176C11.9998 13.4534 11.5543 13 10.9999 13C10.4455 13 10 13.4534 10 14.0176V15.9824Z" fill="#402A32"/>
<path d="M20 15.9824C20 16.5466 20.4455 17 21 17C21.5545 17 22 16.5365 22 15.9824V14.0176C22 13.4534 21.5545 13 21 13C20.4455 13 20 13.4534 20 14.0176V15.9824Z" fill="#402A32"/>
</svg>
